Icons/com_motorola_contextual_smartrules2.svg

<svg viewBox="0 0 48 48"><defs><linearGradient id="linearGradient3764" x1="1" x2="47" gradientUnits="userSpaceOnUse" gradientTransform="translate(-48.000001,0.00221467)"><stop stop-color="#8f65b7" stop-opacity="1"/><stop offset="1" stop-color="#9a73bd" stop-opacity="1"/></linearGradient><clipPath id="clipPath-838157983"><g transform="translate(0,-1004.3622)"><rect rx="4" y="1005.36" x="1" height="46" width="46" fill="#1890d0"/></g></clipPath><clipPath id="clipPath-851309674"><g transform="translate(0,-1004.3622)"><rect rx="4" y="1005.36" x="1" height="46" width="46" fill="#1890d0"/></g></clipPath></defs><g><path d="m 1 43 l 0 0.25 c 0 2.216 1.784 4 4 4 l 38 0 c 2.216 0 4 -1.784 4 -4 l 0 -0.25 c 0 2.216 -1.784 4 -4 4 l -38 0 c -2.216 0 -4 -1.784 -4 -4 z m 0 0.5 l 0 0.5 c 0 2.216 1.784 4 4 4 l 38 0 c 2.216 0 4 -1.784 4 -4 l 0 -0.5 c 0 2.216 -1.784 4 -4 4 l -38 0 c -2.216 0 -4 -1.784 -4 -4 z" opacity="0.02"/><path d="m 1 43.25 l 0 0.25 c 0 2.216 1.784 4 4 4 l 38 0 c 2.216 0 4 -1.784 4 -4 l 0 -0.25 c 0 2.216 -1.784 4 -4 4 l -38 0 c -2.216 0 -4 -1.784 -4 -4 z" opacity="0.05"/><path d="m 1 43 l 0 0.25 c 0 2.216 1.784 4 4 4 l 38 0 c 2.216 0 4 -1.784 4 -4 l 0 -0.25 c 0 2.216 -1.784 4 -4 4 l -38 0 c -2.216 0 -4 -1.784 -4 -4 z" opacity="0.1"/></g><g><rect width="46" height="46" x="-47" y="1" rx="4" transform="matrix(0,-1,1,0,0,0)" fill="url(#linearGradient3764)" fill-opacity="1"/></g><g><g clip-path="url(#clipPath-838157983)"><g opacity="0.1"><!-- color: #9a73bd --><g><path d="m 24 9 l -13 26 l 8 0 l 5 -8 l 5 8 l 8 0 m -13 -26" fill="#000"/><path d="m 15 27 l -4 8 l 8 0 m -4 -8" fill="#000"/><path d="m 33 27 l -4 8 l 8 0 m -4 -8" fill="#000"/><path d="m 24 27 l -9 0 l 4 8 m 5 -8" fill="#000"/><path d="m 24 27 l 9 0 l -4 8 m -5 -8" fill="#000"/><path d="m 24 9 l -4.5 9 l 9 0 m -4.5 -9" fill="#000"/><path d="m 24 27 l -4.5 -9 l 9 0 m -4.5 9" fill="#000"/><path d="m 19.5 18 l -4.5 9 l 9 0 m -4.5 -9" fill="#000"/><path d="m 28.5 18 l -4.5 9 l 9 0 m -4.5 -9" fill="#000"/></g></g></g></g><g><g clip-path="url(#clipPath-851309674)"><g transform="translate(0,-1)"><!-- color: #9a73bd --><g><path d="m 24 9 l -13 26 l 8 0 l 5 -8 l 5 8 l 8 0 m -13 -26" fill="#7cc7dd"/><path d="m 15 27 l -4 8 l 8 0 m -4 -8" fill="#9c4600"/><path d="m 33 27 l -4 8 l 8 0 m -4 -8" fill="#ac8f26"/><path d="m 24 27 l -9 0 l 4 8 m 5 -8" fill="#ff8f00"/><path d="m 24 27 l 9 0 l -4 8 m -5 -8" fill="#fff300"/><path d="m 24 9 l -4.5 9 l 9 0 m -4.5 -9" fill="#d6f4f4"/><path d="m 24 27 l -4.5 -9 l 9 0 m -4.5 9" fill="#00e2e2"/><path d="m 19.5 18 l -4.5 9 l 9 0 m -4.5 -9" fill="#006277"/><path d="m 28.5 18 l -4.5 9 l 9 0 m -4.5 -9" fill="#00ff8f"/></g></g></g></g><g><g transform="translate(0,-1004.3622)"><path d="m 1 1043.36 0 4 c 0 2.216 1.784 4 4 4 l 38 0 c 2.216 0 4 -1.784 4 -4 l 0 -4 c 0 2.216 -1.784 4 -4 4 l -38 0 c -2.216 0 -4 -1.784 -4 -4 z" opacity="0.1"/></g></g></svg>

<svg viewBox="0 0 48 48" xmlns:xlink="http://www.w3.org/1999/xlink">
 <defs>
  <linearGradient id="0">
   <stop stop-opacity="0"/>
   <stop offset="1"/>
  </linearGradient>
  <linearGradient xlink:href="#0" id="1" gradientUnits="userSpaceOnUse" gradientTransform="translate(4e-7,-48)" y1="47" x2="0" y2="1"/>
  <clipPath id="2">
   <g transform="translate(0,-1004.3622)">
    <rect rx="4" y="1005.36" x="1" height="46" width="46" fill="#1890d0"/>
   </g>
  </clipPath>
  <clipPath id="3">
   <g transform="translate(0,-1004.3622)">
    <rect rx="4" y="1005.36" x="1" height="46" width="46" fill="#1890d0"/>
   </g>
  </clipPath>
 </defs>
 <g>
  <g transform="translate(0,-1004.3622)">
   <path d="m 5,1006.3622 c -2.216,0 -4,1.784 -4,4 l 0,37.25 c 0,2.216 1.784,4 4,4 l 38,0 c 2.216,0 4,-1.784 4,-4 l 0,-37.25 c 0,-2.216 -1.784,-4 -4,-4 l -38,0 z m -4,41.5 0,0.5 c 0,2.216 1.784,4 4,4 l 38,0 c 2.216,0 4,-1.784 4,-4 l 0,-0.5 c 0,2.216 -1.784,4 -4,4 l -38,0 c -2.216,0 -4,-1.784 -4,-4 z" opacity="0.02"/>
   <path d="m 1,1047.6122 0,0.25 c 0,2.216 1.784,4 4,4 l 38,0 c 2.216,0 4,-1.784 4,-4 l 0,-0.25 c 0,2.216 -1.784,4 -4,4 l -38,0 c -2.216,0 -4,-1.784 -4,-4 z" opacity="0.05"/>
   <rect width="46" height="46" x="1" y="1005.61" rx="4" opacity="0.1"/>
  </g>
 </g>
 <g>
  <g transform="translate(0,-1004.3622)">
   <rect rx="4" y="1005.36" x="1" height="46" width="46" fill="#9a73bd"/>
  </g>
 </g>
 <g>
  <rect transform="scale(1,-1)" width="46" height="46" x="1" y="-46.998" rx="4" opacity="0.1" fill="url(#1)"/>
 </g>
 <g>
  <g clip-path="url(#2)">
   <g opacity="0.1">
    <g>
     <path d="M 24 9 L 11 35 L 19 35 L 24 27 L 29 35 L 37 35 Z M 24 9 "/>
     <path d="M 15 27 L 11 35 L 19 35 Z M 15 27 "/>
     <path d="M 33 27 L 29 35 L 37 35 Z M 33 27 "/>
     <path d="M 24 27 L 15 27 L 19 35 Z M 24 27 "/>
     <path d="M 24 27 L 33 27 L 29 35 Z M 24 27 "/>
     <path d="M 24 9 L 19.5 18 L 28.5 18 Z M 24 9 "/>
     <path d="M 24 27 L 19.5 18 L 28.5 18 Z M 24 27 "/>
     <path d="M 19.5 18 L 15 27 L 24 27 Z M 19.5 18 "/>
     <path d="M 28.5 18 L 24 27 L 33 27 Z M 28.5 18 "/>
    </g>
   </g>
  </g>
 </g>
 <g>
  <g clip-path="url(#3)">
   <g transform="translate(0,-1)">
    <g>
     <path d="M 24 9 L 11 35 L 19 35 L 24 27 L 29 35 L 37 35 Z M 24 9 " fill="#7cc7dd"/>
     <path d="M 15 27 L 11 35 L 19 35 Z M 15 27 " fill="#9c4600"/>
     <path d="M 33 27 L 29 35 L 37 35 Z M 33 27 " fill="#ac8f26"/>
     <path d="M 24 27 L 15 27 L 19 35 Z M 24 27 " fill="#ff8f00"/>
     <path d="M 24 27 L 33 27 L 29 35 Z M 24 27 " fill="#fff300"/>
     <path d="M 24 9 L 19.5 18 L 28.5 18 Z M 24 9 " fill="#d6f4f4"/>
     <path d="M 24 27 L 19.5 18 L 28.5 18 Z M 24 27 " fill="#00e2e2"/>
     <path d="M 19.5 18 L 15 27 L 24 27 Z M 19.5 18 " fill="#006277"/>
     <path d="M 28.5 18 L 24 27 L 33 27 Z M 28.5 18 " fill="#00ff8f"/>
    </g>
   </g>
  </g>
 </g>
 <g>
  <g transform="translate(0,-1004.3622)">
   <path d="m 1,1043.3622 0,4 c 0,2.216 1.784,4 4,4 l 38,0 c 2.216,0 4,-1.784 4,-4 l 0,-4 c 0,2.216 -1.784,4 -4,4 l -38,0 c -2.216,0 -4,-1.784 -4,-4 z" opacity="0.1"/>
  </g>
 </g>
</svg>
